!!!PDT:	1923
!!!LANG: Non-Tone
!!!LING_GROUP: Siouan
!!!REG: Dakotas
!!!COM: Anon.
!!!OTL: Song of the Corn Priest
!!!ODT: <1918//
!!!MPN: Wopite [Scattered Corn, Mrs. Holding Eagle]
!!!MLC: Fort Berthold Reservation, North Dakota, United States of America
!! Song was recorded during either the summer of 1912, 1915, or 1918.
!!!AGN: monody
!!!SOCIAL_FUNCTION: Mandan Goose Women Society
!!!AMT: irregular
!!!RWG: Transcribed pitches, durations, and meters are only approximate.
!! Drum not recorded.
**kern
*ICvox
*Ifemale
*clefG2
*k[b-e-a-d-g-]
*M3/4
*MM108
=1-
8b-
8f
4b-
8b-
8f
=2
4b-
8b-
8cc
8b-
8f
=3
16b-
8.f
4f
8f
8e-
*M2/4
=4
8f
8e-
8e-
8e-
=5
(12f
12d-
12d-)
4B-
*M3/4
=6
8d-
8B-
8B-
8G-
4F
*M2/4
=7
8B-
8B-
8B-
8A-
*M3/4
=8
8B-
8B-
8b-
8G-
4F
=9
8F
8F
8F
8F
4F
=10
2F;
8f
8f
*M2/4
=11
4b-
8b-
8f
=12
4b-
4b-
*M3/4
=13
8b-
8f
(8gn
[8f
4f])
=14
8f
8e-
8f
8e-
4e-
*M2/4
=15
(12f
12d-
12d-)
4B-
*M3/4
=16
8d-
8B-
8B-
8G-
4F
*M2/4
=17
8B-
8B-
8B-
8A-
*M3/4
=18
8B-
8B
8B-
8G-
4F
=19
8F
8F
8F
8F
4F
=20
2.F
==
*-
!!!CNT: Mandan
!!!TXO: Mandan
!!!OCY: United States
!!!OCL: Frances Densmore
!!!YOR: Frances Densmore, "Mandan and Hidatsa Music",
!!!YOR: Bulletin 80, page 45, No. 4
!!!PPR: Smithsonian Institution, Bureau of American Ethnology
!!!PPR: Government Printing Office
!!!PDT: 1923
!!!PPP: Washington, DC, United States of America
!!!YEC: Electronic Copyright 2000 David Huron
!!!YER: August 2000
!!!YEN: United States of America
!!!ENC: David Huron
!!!RDT: August 16, 2000
!!!EEV: Release 1.0
!!!AIN: tom, vox
